apex/img/arrow-right.svg

<svg width="15" height="24" viewBox="0 0 15 24" fill="none" xmlns="http://www.w3.org/2000/svg">
<path d="M14.6171 11.0635L3.9368 0.383412C3.68978 0.136194 3.36003 0 3.00842 0C2.65682 0 2.32706 0.136194 2.08004 0.383412L1.29351 1.16975C0.781709 1.68213 0.781709 2.51491 1.29351 3.02651L10.262 11.995L1.28356 20.9735C1.03654 21.2207 0.900146 21.5503 0.900146 21.9017C0.900146 22.2535 1.03654 22.583 1.28356 22.8305L2.07009 23.6166C2.31731 23.8638 2.64686 24 2.99847 24C3.35008 24 3.67983 23.8638 3.92685 23.6166L14.6171 12.9267C14.8647 12.6787 15.0007 12.3476 14.9999 11.9956C15.0007 11.6422 14.8647 11.3113 14.6171 11.0635Z" fill="black"/>
</svg>

<svg width="15" height="24" fill="none" xmlns="http://www.w3.org/2000/svg"><path d="M14.617 11.063L3.937.383A1.303 1.303 0 003.008 0c-.351 0-.68.136-.928.383l-.786.787a1.315 1.315 0 000 1.857l8.968 8.968-8.978 8.979a1.304 1.304 0 00-.384.928c0 .351.137.681.384.928l.786.787c.247.247.577.383.928.383.352 0 .682-.136.929-.383l10.69-10.69c.248-.248.384-.58.383-.931 0-.354-.135-.685-.383-.933z" fill="#000"/></svg>
